views/images/icon/fox_sniff.svg

<?xml version="1.0" encoding="UTF-8" standalone="no"?>
<svg
   xmlns:dc="http://purl.org/dc/elements/1.1/"
   xmlns:cc="http://creativecommons.org/ns#"
   xmlns:rdf="http://www.w3.org/1999/02/22-rdf-syntax-ns#"
   xmlns:svg="http://www.w3.org/2000/svg"
   xmlns="http://www.w3.org/2000/svg"
   xmlns:sodipodi="http://sodipodi.sourceforge.net/DTD/sodipodi-0.dtd"
   xmlns:inkscape="http://www.inkscape.org/namespaces/inkscape"
   width="106.11062"
   height="90.874222"
   viewBox="-40 -20 143.39273 118.21037"
   version="1.1"
   id="svg88"
   sodipodi:docname="fox_sniff.svg"
   inkscape:version="0.92.4 (5da689c313, 2019-01-14)">
  <metadata
     id="metadata92">
    <rdf:RDF>
      <cc:Work
         rdf:about="">
        <dc:format>image/svg+xml</dc:format>
        <dc:type
           rdf:resource="http://purl.org/dc/dcmitype/StillImage" />
        <dc:title>Group 10</dc:title>
      </cc:Work>
    </rdf:RDF>
  </metadata>
  <sodipodi:namedview
     pagecolor="#ffffff"
     bordercolor="#666666"
     borderopacity="1"
     objecttolerance="10"
     gridtolerance="10"
     guidetolerance="10"
     inkscape:pageopacity="0"
     inkscape:pageshadow="2"
     inkscape:window-width="1214"
     inkscape:window-height="978"
     id="namedview90"
     showgrid="false"
     inkscape:zoom="6.8943089"
     inkscape:cx="41.375419"
     inkscape:cy="46.03898"
     inkscape:window-x="109"
     inkscape:window-y="19"
     inkscape:window-maximized="0"
     inkscape:current-layer="svg88"
     fit-margin-top="0"
     fit-margin-left="0"
     fit-margin-right="0"
     fit-margin-bottom="0" />
  <!-- Generator: Sketch 51.1 (57501) - http://www.bohemiancoding.com/sketch -->
  <title
     id="title52">Group 10</title>
  <desc
     id="desc54">Created with Sketch.</desc>
  <defs
     id="defs56" />
  <g
     id="Тест"
     style="fill:none;fill-rule:evenodd;stroke:none;stroke-width:1"
     transform="translate(-44.087272,-22.519941)">
    <g
       id="Group-10"
       transform="translate(0,-1)">
      <path
         d="m 29.25,31.92 c 0,0 -7.679806,-15.946204 -20.5798062,-15.836204 C -4.2298062,16.193796 14.2,59.42 14.2,59.42 Z"
         id="Shape"
         inkscape:connector-curvature="0"
         style="fill:#cb2027;fill-rule:nonzero"
         sodipodi:nodetypes="cscc" />
      <ellipse
         id="Oval"
         cx="99.059998"
         cy="85.610001"
         rx="48.419998"
         ry="37.240002"
         style="fill:#a11d21;fill-rule:nonzero" />
      <path
         d="M 24.18,39.76 C 19.97,34.04 13.164233,20.473797 7.6842325,16.143797 -2.9057675,18.373797 13.46,59.37 13.46,59.37 Z"
         id="path60"
         inkscape:connector-curvature="0"
         style="fill:#a11d21;fill-rule:nonzero"
         sodipodi:nodetypes="cccc" />
      <path
         d="m 41.36,85.6 6.36,17.71 44.5,-20 c 0,0 16,-23.2 10.84,-37.14 -5.16,-13.94 -19.81,2.18 -19.81,2.18 z"
         id="path62"
         inkscape:connector-curvature="0"
         style="fill:#575eaa;fill-rule:nonzero" />
      <path
         d="m 58.78,23.46 c 2.559987,-3.599001 4.91699,-7.338155 7.06,-11.2 C 68.46,7.4 64.445719,1.1419709 66.005719,0.43197093 66.585719,0.17197093 79.41,2.4 82.63,8.84 c 3.22,6.44 2.58,32.39 2.58,32.39 z"
         id="path64"
         inkscape:connector-curvature="0"
         style="fill:#cb2027;fill-rule:nonzero"
         sodipodi:nodetypes="cccscc" />
      <path
         d="M 71.085961,2.2160581 65.769709,0.64798062 C 64.209709,1.3579806 68.42,7.42 65.8,12.28 c -2.14301,3.861845 -4.500013,7.600999 -7.06,11.2 l 10,6.75 c 1,0.34 2.08,0.73 3.22,1.16 9.98,3.74 3.315961,-16.553942 -0.874039,-29.1739419 z"
         id="path66"
         inkscape:connector-curvature="0"
         style="fill:#a11d21;fill-rule:nonzero"
         sodipodi:nodetypes="ccccccc" />
      <path
         d="m 95.48,45.51 c 4.83,14.22 -9.55,36.26 -29,42.89 C 47.03,95.03 17.84,86.33 13.01,72.11 8.18,57.89 17.08,31.67 43.33,23.52 66.72,16.24 90.65,31.3 95.48,45.51 Z"
         id="path68"
         inkscape:connector-curvature="0"
         style="fill:#cb2027;fill-rule:nonzero" />
      <path
         d="m 145.52,85.92 c 2,6.46 -0.12,14.5 -7.25,21.53 -5.06352,5.21574 -11.25061,9.20708 -18.09,11.67 -6.33715,2.01914 -12.89432,3.26812 -19.53,3.72 -11.37,0.93 -41.89,0.74 -58.92,-7.91 C 23.85,105.84 17.143845,84.257545 17.143845,84.257545 29.960913,86.26177 46.182273,94.954486 58.8,91.94 c 9.26,-2.33 17.84,-12 26.94,-14.81 28.78,-8.87 55.56,-4.93 59.78,8.79 z"
         id="path70"
         inkscape:connector-curvature="0"
         style="fill:#cb2027;fill-rule:nonzero"
         sodipodi:nodetypes="ccccccccc" />
      <path
         d="m 62.73,85.04 c 0,0 -9.4,-19.68 -25.16,-21.84 -7.81,-1.07 -22.12,2.75 -25.48,5.28 0.195026,1.23268 0.492729,2.446906 0.89,3.63 4.83,14.22 34,22.91 53.47,16.29 17.79,-6 31.32,-25 29.87,-39 -7.8,1.1 -13.54,-2 -22.29,1.58 -16.62,6.88 -11.3,34.06 -11.3,34.06 z"
         id="path72"
         inkscape:connector-curvature="0"
         style="fill:#fff6d1;fill-rule:nonzero" />
      <ellipse
         id="ellipse74"
         transform="rotate(-22.27,62.013758,83.344724)"
         ry="5.8992805"
         rx="7.6106009"
         cy="83.344727"
         cx="62.01376"
         style="fill:#6b1d10;fill-rule:nonzero" />
      <path
         d="m 71.16,64.78 c 0,0 2.995767,-7.064329 11.406058,-8.154136"
         id="path76"
         inkscape:connector-curvature="0"
         style="stroke:#6b1d10;stroke-linecap:round"
         sodipodi:nodetypes="cc" />
      <path
         d="m 27.331777,74.589952 c 0,0 8.762068,-5.424378 15.958223,-0.679952"
         id="path78"
         inkscape:connector-curvature="0"
         style="stroke:#6b1d10;stroke-linecap:round"
         sodipodi:nodetypes="cc" />
      <path
         d="M 50.65,106.84 50.32,107 c 0.45,0.41 0.33,-0.16 0.33,-0.16 z"
         id="path80"
         inkscape:connector-curvature="0"
         style="fill:#fff6d1;fill-rule:nonzero" />
      <path
         d="m 47.3,113.49 c -3.24,-3.06 1.65,-5.81 3,-6.49 -0.99592,-1.13139 -1.864468,-2.36882 -2.59,-3.69 -1.71,-2.78 0.104087,-8.330097 0.554087,-11.170097 -8.54315,-1.199656 -22.437027,-6.507778 -31.120242,-7.882358 0,0 6.480146,21.582455 24.360146,30.672455 4.594542,2.21691 9.635465,3.87217 14.626009,4.93 -3.160597,-1.80467 -6.120538,-3.93998 -8.83,-6.37 z"
         id="path82"
         inkscape:connector-curvature="0"
         style="fill:#fff6d1;fill-rule:nonzero"
         sodipodi:nodetypes="cccccccc" />
      <path
         d="M 31.65,65.2 C 25.1,53.2 28.65,38.36 32.51,28.29 14.65,39.27 8.87,59.96 12.97,72.04 16.75,83.16 35.42,90.91 52.7,90.57 45.28,83.72 36.86,74.73 31.65,65.2 Z"
         id="path84"
         inkscape:connector-curvature="0"
         style="opacity:0.36000001;fill:#791615;fill-rule:nonzero" />
    </g>
  </g>
</svg>

<?xml version="1.0" encoding="UTF-8"?>
<svg width="148px" height="123px" viewBox="-40 -20 200 160" version="1.1" xmlns="http://www.w3.org/2000/svg" xmlns:xlink="http://www.w3.org/1999/xlink">
    <!-- Generator: Sketch 51.1 (57501) - http://www.bohemiancoding.com/sketch -->
    <title>Group 37</title>
    <desc>Created with Sketch.</desc>
    <defs>
        <polygon id="path-1" points="0.6391 0.1522 97.472 0.1522 97.472 74.6262 0.6391 74.6262"></polygon>
        <polygon id="path-3" points="0.7748 0.78 27.2564997 0.78 27.2564997 41.0187 0.7748 41.0187"></polygon>
    </defs>
    <g id="Коммерческое-предложение" stroke="none" stroke-width="1" fill="none" fill-rule="evenodd">
        <g id="Group-37" transform="translate(0.000000, -1.000000)">
            <path d="M29.2416,31.9226 C29.2416,31.9226 17.6386,20.0976 4.7456,20.2076 C-8.1464,20.3186 14.2006,59.4266 14.2006,59.4266 L29.2416,31.9226 Z" id="Fill-1" fill="#CA2026"></path>
            <g id="Group-5" transform="translate(50.000000, 48.220000)">
                <mask id="mask-2" fill="white">
                    <use xlink:href="#path-1"></use>
                </mask>
                <g id="Clip-4"></g>
                <path d="M97.4721,37.3892 C97.4721,57.9542 75.7951,74.6262 49.0551,74.6262 C22.3151,74.6262 0.6391,57.9542 0.6391,37.3892 C0.6391,16.8242 22.3151,0.1522 49.0551,0.1522 C75.7951,0.1522 97.4721,16.8242 97.4721,37.3892" id="Fill-3" fill="#A01D20" mask="url(#mask-2)"></path>
            </g>
            <path d="M24.1786,39.7674 C19.9666,34.0094 8.4566,24.5984 2.9766,20.2624 C-7.6134,22.4954 13.4576,59.3714 13.4576,59.3714 L24.1786,39.7674 Z" id="Fill-6" fill="#A01D20"></path>
            <path d="M41.3588,85.6092 L47.7158,103.3102 L92.2138,83.3322 C92.2138,83.3322 108.2178,60.1382 103.0548,46.1992 C97.8928,32.2592 83.2418,48.3722 83.2418,48.3722 L41.3588,85.6092 Z" id="Fill-8" fill="#565EA9"></path>
            <g id="Group-12" transform="translate(58.000000, 0.220000)">
                <mask id="mask-4" fill="white">
                    <use xlink:href="#path-3"></use>
                </mask>
                <g id="Clip-11"></g>
                <path d="M0.7748,23.2397 C0.7748,23.2397 4.8608,17.5597 7.8368,12.0437 C10.4558,7.1857 12.1278,1.5117 13.6888,0.8057 C14.2678,0.5447 21.4028,2.1817 24.6258,8.6287 C27.8488,15.0747 27.2038,41.0187 27.2038,41.0187 L0.7748,23.2397 Z" id="Fill-10" fill="#CA2026" mask="url(#mask-4)"></path>
            </g>
            <path d="M71.8612,1.0017 C71.7832,1.0037 71.7232,1.0107 71.6892,1.0257 C70.1282,1.7317 68.4552,7.4057 65.8362,12.2637 C62.8602,17.7797 58.7752,23.4597 58.7752,23.4597 L68.8182,30.2157 C69.8242,30.5587 70.8912,30.9397 72.0372,31.3757 C81.9312,35.1357 76.0572,13.6617 71.8612,1.0017" id="Fill-13" fill="#A01D20"></path>
            <path d="M95.477,45.5183 C100.31,59.7353 85.921,81.7783 66.435,88.4033 C46.949,95.0273 17.798,86.3333 12.965,72.1183 C8.132,57.9013 17.036,31.6753 43.284,23.5243 C66.718,16.2473 90.644,31.3013 95.477,45.5183" id="Fill-15" fill="#CA2026"></path>
            <path d="M145.5175,85.9265 C147.5075,92.3895 145.3925,100.4205 138.2655,107.4535 C133.6845,111.9735 127.8615,116.4865 120.1755,119.1255 C114.4255,121.1005 107.4105,122.2935 100.6245,122.8465 C89.2505,123.7735 58.7325,123.5855 41.7105,114.9365 C23.8225,105.8465 20.2545,93.4805 20.2545,93.4805 C20.2545,93.4805 38.7145,96.9975 58.7745,91.9475 C68.0385,89.6145 76.6165,79.9355 85.7155,77.1345 C114.5175,68.2665 141.2915,72.2025 145.5175,85.9265" id="Fill-17" fill="#CA2026"></path>
            <path d="M62.725,85.0408 C62.725,85.0408 53.322,65.3608 37.568,63.2068 C29.753,62.1388 15.441,65.9558 12.089,68.4828 C12.298,69.7588 12.587,70.9798 12.974,72.1178 C17.807,86.3338 46.957,95.0268 66.444,88.4028 C84.236,82.3538 97.769,63.4548 96.311,49.3918 C88.512,50.4918 82.771,47.3508 74.024,50.9778 C57.404,57.8678 62.725,85.0408 62.725,85.0408" id="Fill-19" fill="#FFF5D0"></path>
            <path d="M67.2211,79.3094 C67.9761,81.1544 65.9641,83.7244 62.7261,85.0504 C59.4891,86.3764 56.2511,85.9564 55.4961,84.1124 C54.7401,82.2684 56.7531,79.6984 59.9911,78.3724 C63.2281,77.0444 66.4661,77.4654 67.2211,79.3094" id="Fill-21" fill="#6B1C0F"></path>
            <path d="M71.4872,65.2371 C71.4872,65.2371 76.7352,60.0341 79.2562,56.8271" id="Stroke-23" stroke="#6B1C0F" stroke-linecap="round"></path>
            <path d="M32.2011,74.0701 C32.2011,74.0701 39.5601,74.7101 43.6171,74.9491" id="Stroke-25" stroke="#6B1C0F" stroke-linecap="round"></path>
            <path d="M50.6386,106.8445 C50.6386,106.8445 50.5106,106.9015 50.3016,107.0055 C50.7606,107.4185 50.6386,106.8445 50.6386,106.8445" id="Fill-27" fill="#FFF5D0"></path>
            <path d="M47.3002,113.4978 C44.0562,110.4338 48.9432,107.6838 50.3012,107.0058 C49.9342,106.6758 49.1952,105.7138 47.7162,103.3098 C46.0082,100.5368 46.0562,96.9468 46.5052,94.1038 C31.7772,95.6718 20.2542,93.4798 20.2542,93.4798 C20.2542,93.4798 23.8222,105.8468 41.7102,114.9358 C45.8722,117.0508 50.8422,118.6558 56.1402,119.8668 C56.0902,119.8388 51.0242,117.0148 47.3002,113.4978" id="Fill-29" fill="#FFF5D0"></path>
            <path d="M32.5084,28.293 C14.6514,39.275 8.8654,59.961 12.9644,72.016 C16.7454,83.139 35.4154,90.881 52.6944,90.55 C45.2764,83.722 36.8574,74.73 31.6434,65.201 C25.0934,53.228 28.5994,38.363 32.5084,28.293 Z" id="Fill-31" fill="#781614" opacity="0.293191964"></path>
            <path d="M60.0409,84.3621 C59.1459,84.6681 58.5309,85.2991 58.5049,85.8741 C59.6609,85.9301 61.0059,85.7021 62.3599,85.1741 C62.3679,85.0691 62.3619,84.9651 62.3289,84.8661 C62.1109,84.2301 61.0869,84.0051 60.0409,84.3621" id="Fill-33" fill="#231F20"></path>
            <path d="M66.5585,82.3181 C66.0965,81.9371 65.1715,82.0551 64.3625,82.6361 C63.4775,83.2711 63.0695,84.2141 63.4315,84.7641 C64.7775,84.1061 65.8625,83.2361 66.5585,82.3181" id="Fill-35" fill="#231F20"></path>
        </g>
    </g>
</svg>
